app/assets/images/Contenido/ícono 3.svg

<svg fill="none" height="290" viewBox="0 0 290 290" width="290" xmlns="http://www.w3.org/2000/svg" xmlns:xlink="http://www.w3.org/1999/xlink"><clipPath id="a"><path d="m0 0h290v290h-290z"/></clipPath><g clip-path="url(#a)"><path d="m74.8387 65.4837c0 5.1662-4.1887 9.3549-9.3548 9.3549-5.1662 0-9.3549-4.1887-9.3549-9.3549 0-5.1661 4.1887-9.3548 9.3549-9.3548 5.1661 0 9.3548 4.1887 9.3548 9.3548z" fill="#ff826e"/><path d="m23.3871 65.4837c0 5.1662-4.1887 9.3549-9.3548 9.3549-5.16621 0-9.35487-4.1887-9.35487-9.3549 0-5.1661 4.18866-9.3548 9.35487-9.3548 5.1661 0 9.3548 4.1887 9.3548 9.3548z" fill="#ff826e"/><path d="m135.645 28.0643c0 5.1662-4.189 9.3549-9.355 9.3549s-9.355-4.1887-9.355-9.3549 4.189-9.3548 9.355-9.3548 9.355 4.1886 9.355 9.3548z" fill="#ff826e"/><path d="m160.576 95.9807c1.919 1.6832 3.134 4.1633 3.134 6.9223 0 5.146-4.21 9.355-9.355 9.355-5.146 0-9.355-4.209-9.355-9.355 0-5.1454 4.209-9.3547 9.355-9.3547 2.384 0 4.584.8885 6.221 2.4324z" fill="#ff826e"/><path d="m203.048 49.5329c1.728 1.6855 2.758 4.0242 2.758 6.5959 0 5.1456-4.209 9.3548-9.354 9.3548-2.385 0-4.584-.8884-6.222-2.4323-1.918-1.6833-3.133-4.1636-3.133-6.9225 0-5.1457 4.209-9.3549 9.355-9.3549 2.571 0 4.91 1.0301 6.596 2.759z" fill="#ff826e"/><path d="m210.484 112.258v53.884c-5.847-4.115-12.395-7.249-19.411-9.261l.701-2.526v-42.097z" fill="#ffeaa7"/><path d="m173.065 135.645v18.71c-6.503 0-12.77.936-18.71 2.713v-21.423z" fill="#ffeaa7"/><path d="m247.903 88.8711v130.9679h-9.355c0-12.349-3.414-23.855-9.354-33.724v-97.2439z" fill="#ffeaa7"/><path d="m266.613 51.4517h18.71v168.3873h-18.71z" fill="#ffeaa7"/><path d="m134.008 167.264c-6.875 5.145-12.676 11.554-17.072 18.897l-.14-.094c.094-1.215.14-2.432.14-3.647 0-23.248-18.8495-42.097-42.0973-42.097s-42.0968 18.849-42.0968 42.097c0 23.247 18.849 42.096 42.0968 42.096 13.9386 0 26.2393-6.783 33.9113-17.165-.749 4.07-1.169 8.231-1.169 12.488 0 6.689.982 13.144 2.852 19.224l-5.424-3.883c-4.399 2.526-9.1676 4.492-14.2195 5.847l-1.9185 11.554h-28.0645l-1.9185-11.554c-5.052-1.355-9.8208-3.321-14.2195-5.847l-9.5422 6.783-19.831-19.831 6.7831-9.542c-2.526-4.399-4.4924-9.168-5.8467-14.22l-11.55427-1.918v-28.065l11.55427-1.918c1.3543-5.052 3.3207-9.821 5.8467-14.22l-6.7831-9.542 19.831-19.831 9.5422 6.783c4.3987-2.526 9.1675-4.492 14.2195-5.846l1.9185-11.555h28.0645l1.9185 11.555c5.0519 1.354 9.8205 3.32 14.2195 5.846l9.542-6.783 19.831 19.831-6.783 9.542c2.526 4.399 4.492 9.168 5.847 14.22z" fill="#ffc729"/><path d="m116.935 182.42c0 1.215-.045 2.432-.139 3.647l.139.094c-3.882 6.408-6.689 13.566-8.139 21.142l-.046.048c-7.672 10.382-19.9727 17.165-33.9113 17.165-23.2478 0-42.0968-18.849-42.0968-42.096 0-23.248 18.849-42.097 42.0968-42.097s42.0963 18.849 42.0963 42.097zm-18.7092 0c0-12.909-10.4785-23.388-23.3871-23.388s-23.3871 10.479-23.3871 23.388c0 12.908 10.4785 23.387 23.3871 23.387s23.3871-10.479 23.3871-23.387z" fill="#fcd770"/><path d="m229.194 186.115c5.94 9.869 9.354 21.375 9.354 33.724 0 36.156-29.327 65.484-65.483 65.484-29.467 0-54.398-19.459-62.632-46.261-1.87-6.079-2.852-12.534-2.852-19.223 0-4.257.42-8.419 1.169-12.488l.046-.048c1.45-7.576 4.257-14.734 8.139-21.142 4.397-7.343 10.198-13.752 17.073-18.897 6.034-4.491 12.91-7.951 20.347-10.196 5.94-1.777 12.207-2.713 18.71-2.713 6.267 0 12.301.888 18.008 2.526 7.016 2.012 13.564 5.146 19.411 9.261 7.578 5.239 13.938 12.068 18.71 19.973z" fill="#b4dd7f"/><path d="m219.839 219.839c0 25.833-20.941 46.774-46.774 46.774-25.834 0-46.775-20.941-46.775-46.774 0-25.834 20.941-46.775 46.775-46.775 25.833 0 46.774 20.941 46.774 46.775z" fill="#e6e9ed"/><g fill="#000"><path d="m90.4332 172.119c2.0395 3.079 3.1152 6.637 3.1152 10.301 0 10.318-8.391 18.709-18.7097 18.709-3.6634 0-7.2262-1.076-10.2958-3.11l-5.1684 7.797c4.6089 3.053 9.9532 4.668 15.4642 4.668 15.478 0 28.0643-12.587 28.0643-28.064 0-5.505-1.614-10.851-4.6681-15.469z"/><path d="m74.8387 163.71c3.6634 0 7.2263 1.076 10.2958 3.11l5.1685-7.797c-4.6089-3.053-9.9532-4.668-15.4643-4.668-15.4779 0-28.0645 12.587-28.0645 28.064 0 5.505 1.6147 10.851 4.6683 15.469l7.8018-5.164c-2.0395-3.083-3.1153-6.641-3.1153-10.305 0-10.318 8.3911-18.709 18.7097-18.709z"/><path d="m168.387 196.452v28.064h18.71v-9.355h-9.355v-18.709z"/><path d="m173.065 168.387c-11.838 0-23.401 4.125-32.56 11.618l5.932 7.243c6.271-5.137 13.938-8.309 21.95-9.211v9.06h9.355v-9.079c19.482 2.166 34.978 17.666 37.143 37.143h-9.079v9.355h9.061c-.902 8.017-4.075 15.679-9.211 21.955l7.237 5.927c7.494-9.158 11.623-20.722 11.623-32.559 0-28.368-23.083-51.452-51.451-51.452z"/><path d="m177.742 261.641v-9.061h-9.355v9.079c-19.482-2.165-34.978-17.666-37.143-37.143h9.079v-9.355h-9.061c.903-8.016 4.075-15.679 9.211-21.955l-7.237-5.927c-7.494 9.159-11.623 20.722-11.623 32.56 0 28.368 23.083 51.451 51.452 51.451 11.837 0 23.4-4.125 32.559-11.618l-5.932-7.242c-6.271 5.136-13.934 8.309-21.95 9.211z"/><path d="m261.936 215.162h-9.355v-130.9682h-28.065v88.1032c-2.857-3.092-5.986-5.917-9.355-8.457v-56.259h-28.064v43.508c-3.045-.621-6.183-.966-9.355-1.178v-18.943h-28.065v22.802c-4.704 1.67-9.176 3.826-13.363 6.414-.941-2.606-1.978-5.164-3.231-7.606l7.395-10.357-25.44-25.45-10.362 7.4c-3.12-1.594-6.3794-2.942-9.7481-4.022l-2.0898-12.568h-35.9942l-2.0898 12.568c-3.3687 1.08-6.6278 2.428-9.7476 4.022l-10.3598-7.4-25.4426 25.45 7.3953 10.357c-1.5988 3.115-2.9463 6.375-4.0266 9.748l-12.5728 2.099v35.989l12.5683 2.095c1.0803 3.373 2.4323 6.632 4.0265 9.747l-7.39527 10.356 25.44037 25.451 10.362-7.399c3.1198 1.594 6.3789 2.941 9.7477 4.021l2.0897 12.573h35.9942l2.0898-12.568c3.3687-1.08 6.6277-2.428 9.7477-4.022l1.87 1.336c9.314 27.845 35.588 47.996 66.524 47.996 37.111 0 67.5-28.976 69.923-65.484h47.012v-177.7416h-28.064zm-28.065-121.6134h9.355v121.6134h-.238c-.726-10.931-3.939-21.174-9.117-30.175zm-37.419 23.3874h9.354v40.9c-2.989-1.588-6.127-2.915-9.354-4.061zm-37.42 23.387h9.355v9.592c-3.172.213-6.31.557-9.355 1.181zm-56.339 90.78c-4.0881 2.343-8.4983 4.166-13.1254 5.42l-2.896.785-1.7678 10.595h-20.1348l-1.7677-10.595-2.896-.785c-4.6226-1.254-9.0374-3.077-13.1256-5.42l-2.6059-1.494-8.7222 6.235-14.2424-14.237 6.2351-8.732-1.4937-2.606c-2.3387-4.074-4.1612-8.484-5.4197-13.121l-.7811-2.896-10.59496-1.763v-20.139l10.59496-1.763.7857-2.896c1.263-4.637 3.081-9.051 5.4197-13.121l1.4936-2.606-6.235-8.732 14.2424-14.237 8.7222 6.235 2.6059-1.494c4.0882-2.343 8.4984-4.166 13.1256-5.42l2.8959-.785 1.7678-10.595h20.1348l1.7677 10.595 2.896.785c4.6226 1.254 9.0374 3.077 13.1259 5.42l2.606 1.494 8.722-6.235 14.242 14.237-6.235 8.732 1.494 2.606c2.019 3.517 3.572 7.329 4.794 11.278-2.736 2.272-5.249 4.794-7.61 7.445-4.262-21.437-23.2046-37.648-45.8723-37.648-25.792 0-46.7742 20.983-46.7742 46.775s20.9822 46.774 46.7742 46.774c10.2159 0 20.0435-3.456 28.0693-9.481 0 .041-.005.085-.005.126 0 3.624.361 7.155.893 10.631zm9.449-45.929c-3.522 6.171-6.16 12.897-7.686 20.048-7.0638 9.154-18.0494 14.617-29.6173 14.617-20.6327 0-37.4193-16.787-37.4193-37.419 0-20.633 16.7866-37.42 37.4193-37.42s37.4193 16.787 37.4193 37.42c0 .931-.052 1.843-.116 2.754zm60.923 95.471c-33.528 0-60.807-27.278-60.807-60.806s27.279-60.807 60.807-60.807c33.527 0 60.806 27.279 60.806 60.807s-27.279 60.806-60.806 60.806zm98.225-224.5157h9.355v159.0327h-9.355z"/><path d="m261.936 0v9.35484h10.051l-33.091 26.47496-14.38-14.3794-22.053 22.0533c-1.83-.8793-3.851-1.4069-6.011-1.4069-7.736 0-14.033 6.2967-14.033 14.0322 0 2.4187.674 4.6638 1.754 6.6507l-24.449 27.167c-1.656-.6875-3.464-1.0757-5.369-1.0757-.089 0-.169.0228-.258.0274l-18.808-50.159c3.051-2.5739 5.034-6.3766 5.034-10.6749 0-7.7355-6.297-14.0322-14.033-14.0322-7.735 0-14.032 6.2967-14.032 14.0322 0 1.0095.117 1.9916.322 2.9462l-38.3442 23.5927c-2.405-1.9413-5.4266-3.1518-8.7519-3.1518-6.0889 0-11.2345 3.9238-13.1713 9.3549h-25.1091c-1.9368-5.4311-7.0824-9.3549-13.1712-9.3549-7.7356 0-14.0323 6.2967-14.0323 14.0323 0 7.7355 6.2967 14.0322 14.0323 14.0322 6.0888 0 11.2344-3.9237 13.1712-9.3548h25.1137c1.9368 5.4311 7.0824 9.3548 13.1712 9.3548 7.7356 0 14.0323-6.2967 14.0323-14.0322 0-1.0095-.1165-1.9916-.322-2.9463l38.3443-23.5926c2.4 1.9413 5.422 3.1518 8.747 3.1518.089 0 .169-.0229.258-.0274l18.808 50.1543c-3.051 2.5786-5.033 6.3812-5.033 10.6793 0 7.736 6.296 14.032 14.032 14.032 7.735 0 14.032-6.296 14.032-14.032 0-2.418-.669-4.6635-1.754-6.6505l24.449-27.1669c1.656.6874 3.465 1.0757 5.37 1.0757 7.735 0 14.032-6.2967 14.032-14.0323 0-2.1605-.528-4.1818-1.407-6.0112l15.439-15.4391 13.685 13.6851 42.444-33.9524v13.6531h9.355v-28.0645zm-247.9037 70.1613c-2.5808 0-4.67746-2.1012-4.67746-4.6774 0-2.5763 2.09666-4.6774 4.67746-4.6774s4.6774 2.1011 4.6774 4.6774c0 2.5762-2.0966 4.6774-4.6774 4.6774zm51.4516 0c-2.5808 0-4.6774-2.1012-4.6774-4.6774 0-2.5763 2.0966-4.6774 4.6774-4.6774s4.6774 2.1011 4.6774 4.6774c0 2.5762-2.0966 4.6774-4.6774 4.6774zm56.1291-42.0968c0-2.5762 2.097-4.6774 4.677-4.6774 2.581 0 4.678 2.1012 4.678 4.6774 0 2.5763-2.097 4.6774-4.678 4.6774-2.58 0-4.677-2.1011-4.677-4.6774zm32.742 79.5165c-2.581 0-4.678-2.102-4.678-4.678s2.097-4.6772 4.678-4.6772 4.677 2.1012 4.677 4.6772-2.096 4.678-4.677 4.678zm42.097-46.7745c-2.581 0-4.678-2.1012-4.678-4.6775 0-2.5762 2.097-4.6774 4.678-4.6774 2.58 0 4.677 2.1012 4.677 4.6774 0 2.5763-2.097 4.6775-4.677 4.6775z"/></g></g></svg>

<svg width="290" height="290" viewBox="0 0 290 290" fill="none" xmlns="http://www.w3.org/2000/svg">
<g clip-path="url(#clip0_11_148)">
<path d="M74.8387 65.4837C74.8387 70.6499 70.65 74.8386 65.4839 74.8386C60.3177 74.8386 56.129 70.6499 56.129 65.4837C56.129 60.3176 60.3177 56.1289 65.4839 56.1289C70.65 56.1289 74.8387 60.3176 74.8387 65.4837Z" fill="#FF826E"/>
<path d="M23.3871 65.4837C23.3871 70.6499 19.1984 74.8386 14.0323 74.8386C8.86609 74.8386 4.67743 70.6499 4.67743 65.4837C4.67743 60.3176 8.86609 56.1289 14.0323 56.1289C19.1984 56.1289 23.3871 60.3176 23.3871 65.4837Z" fill="#FF826E"/>
<path d="M135.645 28.0643C135.645 33.2305 131.456 37.4192 126.29 37.4192C121.124 37.4192 116.935 33.2305 116.935 28.0643C116.935 22.8981 121.124 18.7095 126.29 18.7095C131.456 18.7095 135.645 22.8981 135.645 28.0643Z" fill="#FF826E"/>
<path d="M160.576 95.9807C162.495 97.6639 163.71 100.144 163.71 102.903C163.71 108.049 159.5 112.258 154.355 112.258C149.209 112.258 145 108.049 145 102.903C145 97.7576 149.209 93.5483 154.355 93.5483C156.739 93.5483 158.939 94.4368 160.576 95.9807Z" fill="#FF826E"/>
<path d="M203.048 49.5329C204.776 51.2184 205.806 53.5571 205.806 56.1288C205.806 61.2744 201.597 65.4836 196.452 65.4836C194.067 65.4836 191.868 64.5952 190.23 63.0513C188.312 61.368 187.097 58.8877 187.097 56.1288C187.097 50.9831 191.306 46.7739 196.452 46.7739C199.023 46.7739 201.362 47.804 203.048 49.5329Z" fill="#FF826E"/>
<path d="M210.484 112.258V166.142C204.637 162.027 198.089 158.893 191.073 156.881L191.774 154.355V112.258H210.484Z" fill="#FFEAA7"/>
<path d="M173.065 135.645V154.355C166.562 154.355 160.295 155.291 154.355 157.068V135.645H173.065Z" fill="#FFEAA7"/>
<path d="M247.903 88.8711V219.839H238.548C238.548 207.49 235.134 195.984 229.194 186.115V88.8711H247.903Z" fill="#FFEAA7"/>
<path d="M266.613 51.4517H285.323V219.839H266.613V51.4517Z" fill="#FFEAA7"/>
<path d="M134.008 167.264C127.133 172.409 121.332 178.818 116.936 186.161L116.796 186.067C116.89 184.852 116.936 183.635 116.936 182.42C116.936 159.172 98.0865 140.323 74.8387 140.323C51.5909 140.323 32.7419 159.172 32.7419 182.42C32.7419 205.667 51.5909 224.516 74.8387 224.516C88.7773 224.516 101.078 217.733 108.75 207.351C108.001 211.421 107.581 215.582 107.581 219.839C107.581 226.528 108.563 232.983 110.433 239.063L105.009 235.18C100.61 237.706 95.8414 239.672 90.7895 241.027L88.871 252.581H60.8065L58.888 241.027C53.836 239.672 49.0672 237.706 44.6685 235.18L35.1263 241.963L15.2953 222.132L22.0784 212.59C19.5524 208.191 17.586 203.422 16.2317 198.37L4.67743 196.452V168.387L16.2317 166.469C17.586 161.417 19.5524 156.648 22.0784 152.249L15.2953 142.707L35.1263 122.876L44.6685 129.659C49.0672 127.133 53.836 125.167 58.888 123.813L60.8065 112.258H88.871L90.7895 123.813C95.8414 125.167 100.61 127.133 105.009 129.659L114.551 122.876L134.382 142.707L127.599 152.249C130.125 156.648 132.091 161.417 133.446 166.469L134.008 167.264Z" fill="#FFC729"/>
<path d="M116.935 182.42C116.935 183.635 116.89 184.852 116.796 186.067L116.935 186.161C113.053 192.569 110.246 199.727 108.796 207.303L108.75 207.351C101.078 217.733 88.7773 224.516 74.8387 224.516C51.5909 224.516 32.7419 205.667 32.7419 182.42C32.7419 159.172 51.5909 140.323 74.8387 140.323C98.0865 140.323 116.935 159.172 116.935 182.42ZM98.2258 182.42C98.2258 169.511 87.7473 159.032 74.8387 159.032C61.9301 159.032 51.4516 169.511 51.4516 182.42C51.4516 195.328 61.9301 205.807 74.8387 205.807C87.7473 205.807 98.2258 195.328 98.2258 182.42Z" fill="#FCD770"/>
<path d="M229.194 186.115C235.134 195.984 238.548 207.49 238.548 219.839C238.548 255.995 209.221 285.323 173.065 285.323C143.598 285.323 118.667 265.864 110.433 239.062C108.563 232.983 107.581 226.528 107.581 219.839C107.581 215.582 108.001 211.42 108.75 207.351L108.796 207.303C110.246 199.727 113.053 192.569 116.935 186.161C121.332 178.818 127.133 172.409 134.008 167.264C140.042 162.773 146.918 159.313 154.355 157.068C160.295 155.291 166.562 154.355 173.065 154.355C179.332 154.355 185.366 155.243 191.073 156.881C198.089 158.893 204.637 162.027 210.484 166.142C218.062 171.381 224.422 178.21 229.194 186.115Z" fill="#B4DD7F"/>
<path d="M219.839 219.839C219.839 245.672 198.898 266.613 173.065 266.613C147.231 266.613 126.29 245.672 126.29 219.839C126.29 194.005 147.231 173.064 173.065 173.064C198.898 173.064 219.839 194.005 219.839 219.839Z" fill="#E6E9ED"/>
<path d="M90.4332 172.119C92.4727 175.198 93.5484 178.756 93.5484 182.42C93.5484 192.738 85.1574 201.129 74.8387 201.129C71.1753 201.129 67.6125 200.053 64.5429 198.019L59.3745 205.816C63.9834 208.869 69.3277 210.484 74.8387 210.484C90.3167 210.484 102.903 197.897 102.903 182.42C102.903 176.915 101.289 171.569 98.2349 166.951L90.4332 172.119Z" fill="black"/>
<path d="M74.8387 163.71C78.5021 163.71 82.065 164.786 85.1345 166.82L90.303 159.023C85.6941 155.97 80.3498 154.355 74.8387 154.355C59.3608 154.355 46.7742 166.942 46.7742 182.419C46.7742 187.924 48.3889 193.27 51.4425 197.888L59.2443 192.724C57.2048 189.641 56.129 186.083 56.129 182.419C56.129 172.101 64.5201 163.71 74.8387 163.71Z" fill="black"/>
<path d="M168.387 196.452V224.516H187.097V215.161H177.742V196.452H168.387Z" fill="black"/>
<path d="M173.065 168.387C161.227 168.387 149.664 172.512 140.505 180.005L146.437 187.248C152.708 182.111 160.375 178.939 168.387 178.037V187.097H177.742V178.018C197.224 180.184 212.72 195.684 214.885 215.161H205.806V224.516H214.867C213.965 232.533 210.792 240.195 205.656 246.471L212.893 252.398C220.387 243.24 224.516 231.676 224.516 219.839C224.516 191.471 201.433 168.387 173.065 168.387Z" fill="black"/>
<path d="M177.742 261.641V252.58H168.387V261.659C148.905 259.494 133.409 243.993 131.244 224.516H140.323V215.161H131.262C132.165 207.145 135.337 199.482 140.473 193.206L133.236 187.279C125.742 196.438 121.613 208.001 121.613 219.839C121.613 248.207 144.696 271.29 173.065 271.29C184.902 271.29 196.465 267.165 205.624 259.672L199.692 252.43C193.421 257.566 185.758 260.739 177.742 261.641Z" fill="black"/>
<path d="M261.936 215.162H252.581V84.1938H224.516V172.297C221.659 169.205 218.53 166.38 215.161 163.84V107.581H187.097V151.089C184.052 150.468 180.914 150.123 177.742 149.911V130.968H149.677V153.77C144.973 155.44 140.501 157.596 136.314 160.184C135.373 157.578 134.336 155.02 133.083 152.578L140.478 142.221L115.038 116.771L104.676 124.171C101.556 122.577 98.2966 121.229 94.9279 120.149L92.8381 107.581H56.8439L54.7541 120.149C51.3854 121.229 48.1263 122.577 45.0065 124.171L34.6467 116.771L9.2041 142.221L16.5994 152.578C15.0006 155.693 13.6531 158.953 12.5728 162.326L0 164.425V200.414L12.5683 202.509C13.6486 205.882 15.0006 209.141 16.5948 212.256L9.19953 222.612L34.6399 248.063L45.0019 240.664C48.1217 242.258 51.3808 243.605 54.7496 244.685L56.8393 257.258H92.8335L94.9233 244.69C98.292 243.61 101.551 242.262 104.671 240.668L106.541 242.004C115.855 269.849 142.129 290 173.065 290C210.176 290 240.565 261.024 242.988 224.516H290V46.7744H261.936V215.162ZM233.871 93.5486H243.226V215.162H242.988C242.262 204.231 239.049 193.988 233.871 184.987V93.5486ZM196.452 116.936H205.806V157.836C202.817 156.248 199.679 154.921 196.452 153.775V116.936ZM159.032 140.323H168.387V149.915C165.215 150.128 162.077 150.472 159.032 151.096V140.323ZM102.693 231.103C98.6049 233.446 94.1947 235.269 89.5676 236.523L86.6716 237.308L84.9038 247.903H64.769L63.0013 237.308L60.1053 236.523C55.4827 235.269 51.0679 233.446 46.9797 231.103L44.3738 229.609L35.6516 235.844L21.4092 221.607L27.6443 212.875L26.1506 210.269C23.8119 206.195 21.9894 201.785 20.7309 197.148L19.9498 194.252L9.35484 192.489V172.35L19.9498 170.587L20.7355 167.691C21.9985 163.054 23.8165 158.64 26.1552 154.57L27.6488 151.964L21.4138 143.232L35.6562 128.995L44.3784 135.23L46.9843 133.736C51.0725 131.393 55.4827 129.57 60.1099 128.316L63.0058 127.531L64.7736 116.936H84.9084L86.6761 127.531L89.5721 128.316C94.1947 129.57 98.6095 131.393 102.698 133.736L105.304 135.23L114.026 128.995L128.268 143.232L122.033 151.964L123.527 154.57C125.546 158.087 127.099 161.899 128.321 165.848C125.585 168.12 123.072 170.642 120.711 173.293C116.449 151.856 97.5064 135.645 74.8387 135.645C49.0467 135.645 28.0645 156.628 28.0645 182.42C28.0645 208.212 49.0467 229.194 74.8387 229.194C85.0546 229.194 94.8822 225.738 102.908 219.713C102.908 219.754 102.903 219.798 102.903 219.839C102.903 223.463 103.264 226.994 103.796 230.47L102.693 231.103ZM112.142 185.174C108.62 191.345 105.982 198.071 104.456 205.222C97.3922 214.376 86.4066 219.839 74.8387 219.839C54.206 219.839 37.4194 203.052 37.4194 182.42C37.4194 161.787 54.206 145 74.8387 145C95.4714 145 112.258 161.787 112.258 182.42C112.258 183.351 112.206 184.263 112.142 185.174ZM173.065 280.645C139.537 280.645 112.258 253.367 112.258 219.839C112.258 186.311 139.537 159.032 173.065 159.032C206.592 159.032 233.871 186.311 233.871 219.839C233.871 253.367 206.592 280.645 173.065 280.645ZM271.29 56.1293H280.645V215.162H271.29V56.1293Z" fill="black"/>
<path d="M261.936 0V9.35484H271.987L238.896 35.8298L224.516 21.4504L202.463 43.5037C200.633 42.6244 198.612 42.0968 196.452 42.0968C188.716 42.0968 182.419 48.3935 182.419 56.129C182.419 58.5477 183.093 60.7928 184.173 62.7797L159.724 89.9467C158.068 89.2592 156.26 88.871 154.355 88.871C154.266 88.871 154.186 88.8938 154.097 88.8984L135.289 38.7394C138.34 36.1655 140.323 32.3628 140.323 28.0645C140.323 20.329 134.026 14.0323 126.29 14.0323C118.555 14.0323 112.258 20.329 112.258 28.0645C112.258 29.074 112.375 30.0561 112.58 31.0107L74.2358 54.6034C71.8308 52.6621 68.8092 51.4516 65.4839 51.4516C59.395 51.4516 54.2494 55.3754 52.3126 60.8065H27.2035C25.2667 55.3754 20.1211 51.4516 14.0323 51.4516C6.2967 51.4516 0 57.7483 0 65.4839C0 73.2194 6.2967 79.5161 14.0323 79.5161C20.1211 79.5161 25.2667 75.5924 27.2035 70.1613H52.3172C54.254 75.5924 59.3996 79.5161 65.4884 79.5161C73.224 79.5161 79.5207 73.2194 79.5207 65.4839C79.5207 64.4744 79.4042 63.4923 79.1987 62.5376L117.543 38.945C119.943 40.8863 122.965 42.0968 126.29 42.0968C126.379 42.0968 126.459 42.0739 126.548 42.0694L145.356 92.2237C142.305 94.8023 140.323 98.6049 140.323 102.903C140.323 110.639 146.619 116.935 154.355 116.935C162.09 116.935 168.387 110.639 168.387 102.903C168.387 100.485 167.718 98.2395 166.633 96.2525L191.082 69.0856C192.738 69.773 194.547 70.1613 196.452 70.1613C204.187 70.1613 210.484 63.8646 210.484 56.129C210.484 53.9685 209.956 51.9472 209.077 50.1178L224.516 34.6787L238.201 48.3638L280.645 14.4114V28.0645H290V0H261.936ZM14.0323 70.1613C11.4515 70.1613 9.35484 68.0601 9.35484 65.4839C9.35484 62.9076 11.4515 60.8065 14.0323 60.8065C16.6131 60.8065 18.7097 62.9076 18.7097 65.4839C18.7097 68.0601 16.6131 70.1613 14.0323 70.1613ZM65.4839 70.1613C62.9031 70.1613 60.8065 68.0601 60.8065 65.4839C60.8065 62.9076 62.9031 60.8065 65.4839 60.8065C68.0647 60.8065 70.1613 62.9076 70.1613 65.4839C70.1613 68.0601 68.0647 70.1613 65.4839 70.1613ZM121.613 28.0645C121.613 25.4883 123.71 23.3871 126.29 23.3871C128.871 23.3871 130.968 25.4883 130.968 28.0645C130.968 30.6408 128.871 32.7419 126.29 32.7419C123.71 32.7419 121.613 30.6408 121.613 28.0645ZM154.355 107.581C151.774 107.581 149.677 105.479 149.677 102.903C149.677 100.327 151.774 98.2258 154.355 98.2258C156.936 98.2258 159.032 100.327 159.032 102.903C159.032 105.479 156.936 107.581 154.355 107.581ZM196.452 60.8065C193.871 60.8065 191.774 58.7053 191.774 56.129C191.774 53.5528 193.871 51.4516 196.452 51.4516C199.032 51.4516 201.129 53.5528 201.129 56.129C201.129 58.7053 199.032 60.8065 196.452 60.8065Z" fill="black"/>
</g>
<defs>
<clipPath id="clip0_11_148">
<rect width="290" height="290" fill="white"/>
</clipPath>
</defs>
</svg>
